Papirus/16x16/apps/wordview.svg

<svg xmlns="http://www.w3.org/2000/svg" width="16" height="16" version="1">
 <circle fill="#c03630" cx="8" cy="8" r="8"/>
 <path fill="#fff" fill-rule="evenodd" d="m8 4.75c-0.9693 0.0095-1.945 0.2309-2.7893 0.7094-0.3365 0.2192-0.7405 0.5023-1.0449 0.7875-0.479 0.469-0.889 1.016-1.166 1.629 0.75934 1.6751 2.4287 2.9028 4.2651 3.0842 1.2046 0.13636 2.4653-0.07179 3.5242-0.66786 0.3365-0.21919 0.74047-0.50229 1.0449-0.78752 0.479-0.47 0.889-1.017 1.166-1.629-0.759-1.675-2.429-2.903-4.265-3.084-0.244-0.029-0.49-0.042-0.735-0.042zm0 1.2503c1.0044-0.0223 1.8939 0.8763 1.875 1.8754 0.0322 1.1042-1.0681 2.0572-2.1558 1.851-1.0985-0.129-1.8701-1.3614-1.5088-2.4053 0.231-0.768 0.985-1.33 1.79-1.321zm0 1.2503a0.625 0.62514 0 0 0 -0.625 0.626 0.625 0.62514 0 0 0 0.625 0.625 0.625 0.62514 0 0 0 0.625 -0.625 0.625 0.62514 0 0 0 -0.625 -0.624z"/>
</svg>

<?xml version="1.0" encoding="UTF-8" standalone="no"?>
<svg
   id="_图层_1"
   version="1.1"
   viewBox="0 0 64 64" width="16" height="16"
   sodipodi:docname="wordview.svg"
   xml:space="preserve"
   inkscape:version="1.4 (e7c3feb100, 2024-10-09)"
   xmlns:inkscape="http://www.inkscape.org/namespaces/inkscape"
   xmlns:sodipodi="http://sodipodi.sourceforge.net/DTD/sodipodi-0.dtd"
   xmlns="http://www.w3.org/2000/svg"
   xmlns:svg="http://www.w3.org/2000/svg"><sodipodi:namedview
     id="namedview26"
     pagecolor="#505050"
     bordercolor="#eeeeee"
     borderopacity="1"
     inkscape:showpageshadow="0"
     inkscape:pageopacity="0"
     inkscape:pagecheckerboard="0"
     inkscape:deskcolor="#505050"
     inkscape:zoom="10.6875"
     inkscape:cx="32"
     inkscape:cy="24.51462"
     inkscape:window-width="1920"
     inkscape:window-height="939"
     inkscape:window-x="0"
     inkscape:window-y="34"
     inkscape:window-maximized="1"
     inkscape:current-layer="_图层_1" /><!-- Generator: Adobe Illustrator 29.0.1, SVG Export Plug-In . SVG Version: 2.1.0 Build 192)  --><defs
     id="defs6"><style
       id="style1">
      .st0 {
        fill-opacity: .5;
      }

      .st0, .st1, .st2, .st3, .st4, .st5, .st6, .st7 {
        fill: #fff;
      }

      .st8 {
        fill: #133c9a;
      }

      .st2, .st9 {
        display: none;
      }

      .st3 {
        fill-opacity: .2;
      }

      .st4 {
        fill-opacity: .9;
      }

      .st10 {
        fill: #3370ff;
      }

      .st11 {
        fill: url(#_未命名的渐变_3);
      }

      .st12 {
        fill: url(#_未命名的渐变);
      }

      .st5 {
        fill-opacity: .3;
      }

      .st6 {
        fill-opacity: 0;
      }

      .st7 {
        fill-opacity: .7;
      }

      .st13 {
        fill: #00d6b9;
      }

      .st14 {
        fill: url(#_未命名的渐变_2);
      }
    </style><radialGradient
       id="_未命名的渐变"
       data-name="未命名的渐变"
       cx="123.9"
       cy="-40.2"
       fx="123.9"
       fy="-40.2"
       r="59.4"
       gradientTransform="translate(-26.8 25.5) scale(.6 -.7)"
       gradientUnits="userSpaceOnUse"><stop
         offset="0"
         stop-color="#db202e"
         id="stop1" /><stop
         offset="1"
         stop-color="#e01b24"
         id="stop2" /></radialGradient><radialGradient
       id="_未命名的渐变_2"
       data-name="未命名的渐变 2"
       cx="67.6"
       cy="26.8"
       fx="67.6"
       fy="26.8"
       r="105.2"
       gradientTransform="translate(-26.6 25.3) scale(.6 -.7)"
       gradientUnits="userSpaceOnUse"><stop
         offset="0"
         stop-color="#ffb648"
         id="stop3" /><stop
         offset="1"
         stop-color="#ff7800"
         stop-opacity="0"
         id="stop4" /></radialGradient><radialGradient
       id="_未命名的渐变_3"
       data-name="未命名的渐变 3"
       cx="61.7"
       cy="18.6"
       fx="61.7"
       fy="18.6"
       r="68"
       gradientTransform="translate(-26.8 25.8) scale(.6 -.7)"
       gradientUnits="userSpaceOnUse"><stop
         offset="0"
         stop-color="#c64600"
         id="stop5" /><stop
         offset="1"
         stop-color="#a51d2d"
         id="stop6" /></radialGradient></defs><path
     class="st1"
     d="M 47.5,64.1 H 13.8 C 6.2,64.1 0,57.8 0,50.3 V 13.7 C 0,6.2 6.2,0 13.7,0 H 50.3 C 57.8,0 64,6.2 64,13.7 V 50.3 C 64,57.8 57.8,64 50.3,64 h -2.9 0.1 z"
     id="path6"
     style="fill:#c03630;fill-opacity:1"
     sodipodi:nodetypes="cssssssssccc" /><g
     id="g30"
     transform="matrix(4,0,0,3.994152,0.04678363,0.04678363)"><path
       fill="#ffffff"
       fill-rule="evenodd"
       d="M 8,4.75 C 7.0307,4.7595 6.055,4.9809 5.2107,5.4594 4.8742,5.6786 4.4702,5.9617 4.1658,6.2469 c -0.479,0.469 -0.889,1.016 -1.166,1.629 0.75934,1.6751 2.4287,2.9028 4.2651,3.0842 1.2046,0.13636 2.4653,-0.07179 3.5242,-0.66786 0.3365,-0.21919 0.74047,-0.50229 1.0449,-0.78752 0.479,-0.47 0.889,-1.017 1.166,-1.629 -0.759,-1.675 -2.429,-2.903 -4.265,-3.084 C 8.491,4.76272 8.245,4.74972 8,4.74972 Z M 8,6.0003 C 9.0044,5.978 9.8939,6.8766 9.875,7.8757 9.9072,8.9799 8.8069,9.9329 7.7192,9.7267 6.6207,9.5977 5.8491,8.3653 6.2104,7.3214 c 0.231,-0.768 0.985,-1.33 1.79,-1.321 z M 8,7.2506 A 0.625,0.62514 0 0 0 7.375,7.8766 0.625,0.62514 0 0 0 8,8.5016 0.625,0.62514 0 0 0 8.625,7.8766 0.625,0.62514 0 0 0 8,7.2526 Z"
       id="path1" /></g></svg>
